X: 3
T: Mother's Delight
Z: John-Norvell
S: https://thesession.org/tunes/257#setting12985
R: reel
M: 4/4
L: 1/8
K: Ddor
DE|:FEDF Gz EG|FEDF GFEF|D2 d2 defe|decd ABcA|
dedc A3B|cBcG E/2F/2G FE|D2 dc AGAB|1 cAGE EDDE:|2 cAGE EDDE|
|:FAdA FDDF|EGcG ECCE|FAdA FDDF|EDCE DA,DE|
FAdA FDDF|EGcG ECCE|FAGE FEDC|1 A,CDE DA,DE:|2 A,CDE D2DE||

